svgs/sharp-light/snowman-head.svg

<svg xmlns="http://www.w3.org/2000/svg" viewBox="0 0 448 512"><!--! Font Awesome Pro 6.6.0 by @fontawesome - https://fontawesome.com License - https://fontawesome.com/license (Commercial License) Copyright 2024 Fonticons, Inc. --><path d="M352 32l0 128 32 0 0-128 0-32L352 0 96 0 64 0l0 32 0 128 32 0L96 32l256 0zm.7 192c29.3 31.4 47.3 73.6 47.3 120c0 54.8-25 103.7-64.3 136l-223.4 0C73 447.7 48 398.8 48 344c0-46.4 17.9-88.6 47.3-120l.7 0 256 0 .7 0zm41.2 0l38.1 0 16 0 0-32-16 0-48 0-32 0L96 192l-32 0-48 0L0 192l0 32 16 0 38.1 0C30.1 257.9 16 299.3 16 344c0 69 33.6 130.2 85.3 168l245.3 0c51.7-37.8 85.3-99 85.3-168c0-44.7-14.1-86.1-38.1-120zM168 304a24 24 0 1 0 -48 0 24 24 0 1 0 48 0zm136 24a24 24 0 1 0 0-48 24 24 0 1 0 0 48zM176 367.6c0 8.3 2.2 16.4 6.3 23.6l27.8 48.7L224 464.2l13.9-24.3 27.8-48.7c4.1-7.2 6.3-15.3 6.3-23.6c0-26.3-21.3-47.6-47.6-47.6l-.8 0c-26.3 0-47.6 21.3-47.6 47.6zM223.6 352l.8 0c8.6 0 15.6 7 15.6 15.6c0 2.7-.7 5.4-2.1 7.7L224 399.8l-13.9-24.4c-1.3-2.4-2.1-5-2.1-7.7c0-8.6 7-15.6 15.6-15.6z"/></svg>

<svg xmlns="http://www.w3.org/2000/svg" viewBox="0 0 448 512"><!--! Font Awesome Pro 6.4.0 by @fontawesome - https://fontawesome.com License - https://fontawesome.com/license (Commercial License) Copyright 2023 Fonticons, Inc. --><path d="M352 32V160h32V32 0H352 96 64V32 160H96V32H352zm.7 192c29.3 31.4 47.3 73.6 47.3 120c0 54.8-25 103.7-64.3 136H112.3C73 447.7 48 398.8 48 344c0-46.4 17.9-88.6 47.3-120H96 352h.7zm41.2 0H432h16V192H432 384 352 96 64 16 0v32H16 54.1C30.1 257.9 16 299.3 16 344c0 69 33.6 130.2 85.3 168H346.7c51.7-37.8 85.3-99 85.3-168c0-44.7-14.1-86.1-38.1-120zM168 304a24 24 0 1 0 -48 0 24 24 0 1 0 48 0zm136 24a24 24 0 1 0 0-48 24 24 0 1 0 0 48zM176 367.6c0 8.3 2.2 16.4 6.3 23.6l27.8 48.7L224 464.2l13.9-24.3 27.8-48.7c4.1-7.2 6.3-15.3 6.3-23.6c0-26.3-21.3-47.6-47.6-47.6h-.8c-26.3 0-47.6 21.3-47.6 47.6zM223.6 352h.8c8.6 0 15.6 7 15.6 15.6c0 2.7-.7 5.4-2.1 7.7L224 399.8l-13.9-24.4c-1.3-2.4-2.1-5-2.1-7.7c0-8.6 7-15.6 15.6-15.6z"/></svg>
